packages/icons/src/square-above-squares.svg

<svg width="24" height="24" viewBox="0 0 24 24" fill="none" xmlns="http://www.w3.org/2000/svg">
<path d="M20.7426 5.78147L14.1651 2.50875C12.8015 1.83042 11.1992 1.83042 9.83574 2.50875L3.25821 5.78147C2.75319 6.03273 2.36 6.4638 2.15625 6.99007C1.95232 7.51618 1.95232 8.09963 2.15625 8.62573C2.36003 9.152 2.75319 9.58307 3.25821 9.83434L9.83574 13.1071C11.1993 13.7854 12.8017 13.7854 14.1651 13.1071L20.7426 9.83434C21.2476 9.58307 21.6408 9.152 21.8446 8.62573C22.0485 8.09963 22.0485 7.51618 21.8446 6.99007C21.6408 6.4638 21.2476 6.03273 20.7426 5.78147Z" fill="black"/>
<path d="M21.677 10.8314C21.5665 10.9027 21.4523 10.968 21.3349 11.027L14.7589 14.3004C13.0211 15.1655 10.9784 15.1655 9.24062 14.3004L2.66467 11.027C2.54721 10.968 2.433 10.9027 2.32251 10.8314C1.99754 11.3738 1.91369 12.0272 2.0913 12.6339C2.26889 13.2407 2.69181 13.7458 3.25788 14.0271L9.83621 17.2982C11.1987 17.9783 12.8013 17.9781 14.164 17.2981L20.7423 14.0269C21.3084 13.7456 21.7313 13.2407 21.9089 12.6339C22.0865 12.0272 22.002 11.3738 21.677 10.8314Z" fill="black"/>
<path d="M21.3348 15.2205C21.4532 15.1632 21.5674 15.0979 21.677 15.0251C22.0017 15.567 22.0859 16.2201 21.9083 16.8263C21.7307 17.4327 21.3081 17.9372 20.7423 18.2184L14.164 21.4917C12.8008 22.1694 11.1991 22.1694 9.83619 21.4917L3.25786 18.2184C2.69207 17.9372 2.26947 17.4327 2.09188 16.8263C1.91429 16.22 1.99781 15.567 2.32247 15.0251C2.43203 15.0979 2.54624 15.1632 2.66463 15.2205L9.24058 18.4938C10.9789 19.3561 13.0205 19.3561 14.7589 18.4938L21.3348 15.2205Z" fill="black"/>
</svg>

<svg xmlns="http://www.w3.org/2000/svg" width="24" height="24" fill="none" viewBox="0 0 24 24">
  <path fill="#000" d="M20.743 5.781 14.165 2.51a4.86 4.86 0 0 0-4.33 0L3.259 5.78a2.262 2.262 0 0 0 0 4.053l6.578 3.273a4.86 4.86 0 0 0 4.33 0l6.577-3.273a2.263 2.263 0 0 0 0-4.053Z"/>
  <path fill="#000" d="M21.677 10.831c-.11.072-.225.137-.342.196L14.759 14.3a6.191 6.191 0 0 1-5.518 0l-6.576-3.273a3.665 3.665 0 0 1-.342-.196 2.268 2.268 0 0 0 .935 3.196l6.578 3.271c1.363.68 2.965.68 4.328 0l6.578-3.271a2.266 2.266 0 0 0 .935-3.196Z"/>
  <path fill="#000" d="M21.335 15.22c.118-.057.232-.122.342-.195a2.266 2.266 0 0 1-.935 3.193l-6.578 3.274a4.86 4.86 0 0 1-4.328 0l-6.578-3.274a2.265 2.265 0 0 1-.936-3.193c.11.073.224.138.343.195l6.576 3.274a6.21 6.21 0 0 0 5.518 0l6.576-3.274Z"/>
</svg>
